X:52
T:Corney Is Coming
Z: id:dc-reel-47
M:C
L:1/8
K:D Mixolydian
B|Add^c defd|cABG AGEG|Add^c defg|afge fde^c|!
Add^c defd|cABG AGEG|Add^c defd|ge^cd edd:|!
A|defg afdB|cdef gecA|defg afdf|g2ag fddf|!
afdf afdf|gece|gece|defg a3f|g2ag fdd:|!

